!!!OTL: MARIA ZU LIEBEN IST ALLZEIT MEIN SINN
!!!ARE: Europa, Mitteleuropa, Deutschland
!!!SCT: E2083
!!!YEM: Copyright 1995, estate of Helmut Schaffrath.
**kern
*ICvox
*Ivox
*M3/4
*k[f#]
*G:
{4d
=1
4g
4g
4a
=2
4b
4b
8b
8cc
=3
4dd
4b
4a
=4
4g
4r}
{4d
=5
4g
4g
4a
=6
4b
4b
8b
8cc
=7
4dd
4b
4a
=8
4g
4r}
{8b
8cc
=9
4dd
4b
4dd
=10
8dd
8cc
4a
4cc
=11
4b
8g
8b
8dd
8b
=12
4a
4r}
{4d
=13
4g
4g
4a
=14
4b
4b
8b
8cc
=15
4dd
4b
4a
=16
4g
4r}
==
!!!AGN: geistlich, Marien - Lied
!!!ONB: ESAC (Essen Associative Code) Database: ERK3
!!!AMT: simple triple
!!!AIN: vox
!!!EED: Helmut Schaffrath
!!!EEV: 1.0
*-
